svgs/icons/lg/hotels.svg

<svg xmlns="http://www.w3.org/2000/svg" viewBox="0 0 24 24"><path fill="#34363D" d="M8 12c-1.1 0-2-.9-2-2s.9-2 2-2 2 .9 2 2-.9 2-2 2m11-3.9h-6c-1.1 0-2 .9-2 2v1.9h10v-1.9c0-1.1-.9-2-2-2m3 5.9c0-.6-.4-1-1-1h-16v-7.5c0-.8-.7-1.5-1.5-1.5s-1.5.7-1.5 1.5v13c0 .8.7 1.5 1.5 1.5s1.5-.7 1.5-1.5v-2.5h14v2.5c0 .8.7 1.5 1.5 1.5s1.5-.7 1.5-1.5v-4.5z"/></svg>

<svg xmlns="http://www.w3.org/2000/svg" viewBox="0 0 24 24"><path fill="#34363D" d="M8 12c-1.1 0-2-.9-2-2s.9-2 2-2 2 .9 2 2-.9 2-2 2m11-3.9h-6c-1.1 0-2 .9-2 2V12h10v-1.9c0-1.1-.9-2-2-2m3 5.9c0-.6-.4-1-1-1H5V5.5C5 4.7 4.3 4 3.5 4S2 4.7 2 5.5v13c0 .8.7 1.5 1.5 1.5S5 19.3 5 18.5V16h14v2.5c0 .8.7 1.5 1.5 1.5s1.5-.7 1.5-1.5V14z"/></svg>
